my_site/img/footer/twitter.svg

<svg width="24" height="20" viewBox="0 0 24 20" fill="none" xmlns="http://www.w3.org/2000/svg">
<g clip-path="url(#clip0)">
<path d="M24.0004 2.46548C23.1188 2.85141 22.1594 3.12917 21.1711 3.23735C22.1971 2.61879 22.9655 1.64156 23.332 0.489007C22.3692 1.07022 21.3145 1.47778 20.2146 1.6936C19.7549 1.19488 19.1989 0.797581 18.5813 0.526453C17.9636 0.255325 17.2976 0.116179 16.6247 0.117688C13.902 0.117688 11.7123 2.3573 11.7123 5.10564C11.7123 5.49158 11.7584 5.87752 11.8333 6.24884C7.7565 6.03248 4.12048 4.05601 1.7032 1.0299C1.26274 1.79335 1.03193 2.66261 1.03477 3.54727C1.03477 5.27814 1.902 6.80435 3.22444 7.70195C2.44511 7.6708 1.68402 7.45342 1.00308 7.06749V7.12889C1.00308 9.5527 2.69143 11.5613 4.94161 12.0233C4.51912 12.1347 4.08449 12.1916 3.64797 12.1929C3.32817 12.1929 3.02565 12.1607 2.72024 12.1168C3.34257 14.0933 5.15482 15.5289 7.3128 15.5757C5.62444 16.9177 3.50968 17.7071 1.2134 17.7071C0.801397 17.7071 0.421085 17.6925 0.0263672 17.6457C2.20452 19.0637 4.78891 19.8824 7.5721 19.8824C16.6074 19.8824 21.5514 12.2864 21.5514 5.69332C21.5514 5.47696 21.5514 5.2606 21.537 5.04424C22.4936 4.33377 23.332 3.45371 24.0004 2.46548Z" fill="#21A6DF"/>
</g>
<defs>
<clipPath id="clip0">
<rect width="24" height="19.7647" fill="white" transform="translate(0 0.117676)"/>
</clipPath>
</defs>
</svg>

<svg width="24" height="20" fill="none" xmlns="http://www.w3.org/2000/svg"><g clip-path="url(#clip0)"><path d="M24 2.465a9.74 9.74 0 01-2.829.772A4.96 4.96 0 0023.332.49a9.613 9.613 0 01-3.117 1.205A4.902 4.902 0 0018.58.526a4.84 4.84 0 00-1.956-.408c-2.723 0-4.913 2.24-4.913 4.988 0 .386.046.772.121 1.143a13.896 13.896 0 01-10.13-5.22 5.007 5.007 0 00-.668 2.518c0 1.731.867 3.257 2.19 4.155a4.901 4.901 0 01-2.222-.635v.062c0 2.424 1.688 4.432 3.939 4.894a5.133 5.133 0 01-1.294.17 6.43 6.43 0 01-.928-.076 4.931 4.931 0 004.593 3.459 9.756 9.756 0 01-6.1 2.131c-.412 0-.792-.015-1.187-.061a13.765 13.765 0 007.546 2.236c9.035 0 13.98-7.596 13.98-14.189 0-.216 0-.432-.015-.649.957-.71 1.795-1.59 2.463-2.579z" fill="#21A6DF"/></g><defs><clipPath id="clip0"><path fill="#fff" transform="translate(0 .118)" d="M0 0h24v19.765H0z"/></clipPath></defs></svg>
